X: 6051
T: Cape Clear
R: mazurka
M: 3/4
K: Gminor
d|ga b2 b2|b2 ba g2|gg ^f2 d2|d2 d2 dc|
B2 B2 Bc|d2 d2 dc|B2 d2 c2|c2 B2 G2||
ga b2 b2|b2 ba g2|gg ^f2 d2|d2 d2 d'c'|
b2 b2 ba|g2 b2 a2|a2 a2 g2|^f2 g2 g2||
d'2 d'2 d'c'|b2 b2 bc'|d'b c'2 c'2|c'b a2 ab|
c'a b2 ba|g2 ba a2|g2 ^f2 d2|d2 d2 dc|
B2 B2 Bc|d'e fd g2|^fg a2 a2|a2 a2 d'c'|
b2 b2 ba|g2 b2 a2|a2 a2 g2|^f2 g2 g2||

